icons/svg/poi_colored/town.svg

<?xml version="1.0" encoding="UTF-8" standalone="no"?>
<!-- Created with Inkscape (http://www.inkscape.org/) -->

<svg
   xmlns:dc="http://purl.org/dc/elements/1.1/"
   xmlns:cc="http://creativecommons.org/ns#"
   xmlns:rdf="http://www.w3.org/1999/02/22-rdf-syntax-ns#"
   xmlns:svg="http://www.w3.org/2000/svg"
   xmlns="http://www.w3.org/2000/svg"
   xmlns:sodipodi="http://sodipodi.sourceforge.net/DTD/sodipodi-0.dtd"
   xmlns:inkscape="http://www.inkscape.org/namespaces/inkscape"
   version="1.0"
   width="580"
   height="580"
   id="svg2"
   sodipodi:version="0.32"
   inkscape:version="0.48.4 r9939"
   sodipodi:docname="town.svg"
   inkscape:output_extension="org.inkscape.output.svg.inkscape">
  <metadata
     id="metadata10">
    <rdf:RDF>
      <cc:Work
         rdf:about="">
        <dc:format>image/svg+xml</dc:format>
        <dc:type
           rdf:resource="http://purl.org/dc/dcmitype/StillImage" />
        <cc:license
           rdf:resource="http://web.resource.org/cc/PublicDomain" />
        <dc:language>en</dc:language>
        <dc:title></dc:title>
      </cc:Work>
    </rdf:RDF>
  </metadata>
  <sodipodi:namedview
     inkscape:window-height="995"
     inkscape:window-width="1280"
     inkscape:pageshadow="2"
     inkscape:pageopacity="0.0"
     guidetolerance="10.0"
     gridtolerance="10.0"
     objecttolerance="10.0"
     borderopacity="1.0"
     bordercolor="#666666"
     pagecolor="#ffffff"
     id="base"
     showgrid="false"
     inkscape:zoom="0.70710678"
     inkscape:cx="230.30361"
     inkscape:cy="170.28646"
     inkscape:window-x="0"
     inkscape:window-y="0"
     inkscape:current-layer="svg2"
     inkscape:window-maximized="1"
     inkscape:snap-global="true"
     inkscape:snap-bbox="true"
     inkscape:snap-midpoints="true"
     inkscape:snap-center="true"
     inkscape:object-paths="true">
    <inkscape:grid
       type="xygrid"
       id="grid3034" />
  </sodipodi:namedview>
  <defs
     id="defs4">
    <inkscape:perspective
       sodipodi:type="inkscape:persp3d"
       inkscape:vp_x="0 : 290 : 1"
       inkscape:vp_y="0 : 1000 : 0"
       inkscape:vp_z="580 : 290 : 1"
       inkscape:persp3d-origin="290 : 193.33333 : 1"
       id="perspective12" />
    <style
       type="text/css"
       id="style6">
   
    .fil0 {fill:#EF7900}
   
  </style>
    <inkscape:perspective
       id="perspective6807"
       inkscape:persp3d-origin="29.116032 : 19.410688 : 1"
       inkscape:vp_z="58.232063 : 29.116032 : 1"
       inkscape:vp_y="0 : 1000 : 0"
       inkscape:vp_x="0 : 29.116032 : 1"
       sodipodi:type="inkscape:persp3d" />
    <inkscape:perspective
       id="perspective6954"
       inkscape:persp3d-origin="290 : 193.33333 : 1"
       inkscape:vp_z="580 : 290 : 1"
       inkscape:vp_y="0 : 1000 : 0"
       inkscape:vp_x="0 : 290 : 1"
       sodipodi:type="inkscape:persp3d" />
    <inkscape:perspective
       id="perspective2541"
       inkscape:persp3d-origin="240 : 160 : 1"
       inkscape:vp_z="480 : 240 : 1"
       inkscape:vp_y="0 : 1000 : 0"
       inkscape:vp_x="0 : 240 : 1"
       sodipodi:type="inkscape:persp3d" />
    <inkscape:perspective
       id="perspective2750"
       inkscape:persp3d-origin="215 : 143.33333 : 1"
       inkscape:vp_z="430 : 215 : 1"
       inkscape:vp_y="0 : 1000 : 0"
       inkscape:vp_x="0 : 215 : 1"
       sodipodi:type="inkscape:persp3d" />
    <inkscape:perspective
       id="perspective3730"
       inkscape:persp3d-origin="88.929146 : 101.19778 : 1"
       inkscape:vp_z="177.85829 : 151.79668 : 1"
       inkscape:vp_y="0 : 1000 : 0"
       inkscape:vp_x="0 : 151.79668 : 1"
       sodipodi:type="inkscape:persp3d" />
  </defs>
  <a
     id="a3072"
     transform="translate(0,8)">
    <g
       id="g1327">
      <path
         id="path1329"
         style="fill:#111111;stroke:#eeeeee;stroke-width:3.40799999"
         d="M 66.275,1.768 C 24.94,1.768 1.704,23.139 1.704,66.804 l 0,450.123 c 0,40.844 20.894,62.229 62.192,62.229 l 452.024,0 c 41.307,0 62.229,-20.316 62.229,-62.229 l 0,-450.123 c 0,-42.601 -20.922,-65.036 -63.522,-65.036 -0.003,0 -448.494,-0.143 -448.352,0 z"
         inkscape:connector-curvature="0" />
    </g>
  </a>
  <g
     id="g1327-3"
     transform="matrix(1.4887701,0,0,1.4888106,-703.87313,-249.96612)" />
  <path
     inkscape:connector-curvature="0"
     d="m 91.998083,300.08564 -49.943967,36.58208 v 182.9104 H 141.94205 V 336.66772 L 91.998083,300.08564 z m 13.621077,36.58208 H 78.377 v -8.23097 l 13.621083,-10.06008 13.621077,10.06008 v 8.23097 z M 78.377,382.39532 H 60.21556 V 364.10428 H 78.377 v 18.29104 z m 0,36.58208 H 60.21556 V 400.68636 H 78.377 v 18.29104 z m 0,36.58208 H 60.21556 V 437.26844 H 78.377 v 18.29104 z m 0,36.58208 H 60.21556 V 473.85052 H 78.377 v 18.29104 z m 45.40361,-109.74624 h -18.16145 v -18.29104 h 18.16145 v 18.29104 z m 0,36.58208 h -18.16145 v -18.29104 h 18.16145 v 18.29104 z m 0,36.58208 h -18.16145 v -18.29104 h 18.16145 v 18.29104 z m 0,36.58208 h -18.16145 v -18.29104 h 18.16145 v 18.29104 z"
     id="path3"
     style="fill:#ffffff;fill-opacity:1;stroke:none" />
  <path
     style="fill:#ffffff;fill-opacity:1;stroke:none"
     d="m 174.04261,224.51182 0,295.0663 99.9113,0 0,-295.0663 z m 18.18173,29.33393 18.15653,0 0,18.28608 -18.15653,0 z m 45.49218,0 18.15653,0 0,18.28608 -18.15653,0 z m -45.49218,36.57217 18.15653,0 0,18.28608 -18.15653,0 z m 45.49218,0 18.15653,0 0,18.28608 -18.15653,0 z m -45.49218,36.57217 18.15653,0 0,18.28608 -18.15653,0 z m 45.49218,0 18.15653,0 0,18.28608 -18.15653,0 z m -45.49218,37.13091 18.15653,0 0,18.28608 -18.15653,0 z m 45.39131,0 18.15652,0 0,18.28608 -18.15652,0 z m -45.39131,36.57217 18.15653,0 0,18.28608 -18.15653,0 z m 45.39131,0 18.15652,0 0,18.28608 -18.15652,0 z m -45.39131,36.57217 18.15653,0 0,18.28608 -18.15653,0 z m 45.39131,0 18.15652,0 0,18.28608 -18.15652,0 z m -45.39131,36.59757 18.15653,0 0,18.28608 -18.15653,0 z m 45.39131,0 18.15652,0 0,18.28608 -18.15652,0 z"
     id="path3-3"
     inkscape:connector-curvature="0"
     sodipodi:nodetypes="ccccccccccccccccccccccccccccccccccccccccccccccccccccccccccccccccccccccccccc" />
  <path
     inkscape:connector-curvature="0"
     d="m 488.00192,396.20011 -49.94396,23.36453 0,100.01348 99.88793,0 0,-100.01348 z m -13.62108,60.96498 -18.16144,0 0,-18.29104 18.16144,0 z m 0,34.97647 -18.16144,0 0,-18.29104 18.16144,0 z m 45.40361,-34.97647 -18.16144,0 0,-18.29104 18.16144,0 z m 0,34.97647 -18.16144,0 0,-18.29104 18.16144,0 z"
     id="path3-0"
     style="fill:#ffffff;fill-opacity:1;stroke:none"
     sodipodi:nodetypes="cccccccccccccccccccccccccc" />
  <path
     style="fill:#ffffff;fill-opacity:1;stroke:none"
     d="m 306.0545,172.42188 0,347.15624 99.90289,0 0,-324.32404 z m 18.01284,43.02309 18.16145,0 0,17.90512 -18.16145,0 z m 45.83464,0 18.16146,0 0,17.90512 -18.16146,0 z m -45.6563,38.40078 18.16146,0 0,18.28608 -18.16146,0 z m 45.47796,0 18.16146,0 0,18.28608 -18.16146,0 z m -45.47796,36.57217 18.16146,0 0,18.28608 -18.16146,0 z m 45.47796,0 18.16146,0 0,18.28608 -18.16146,0 z m -45.47796,36.57217 18.16146,0 0,18.28608 -18.16146,0 z m 45.47796,0 18.16146,0 0,18.28608 -18.16146,0 z m -45.47796,37.13091 18.16146,0 0,18.28608 -18.16146,0 z m 45.38879,0 18.16146,0 0,18.28608 -18.16146,0 z m -45.38879,36.57217 18.16146,0 0,18.28608 -18.16146,0 z m 45.38879,0 18.16146,0 0,18.28608 -18.16146,0 z m -45.38879,36.57217 18.16146,0 0,18.28608 -18.16146,0 z m 45.38879,0 18.16146,0 0,18.28608 -18.16146,0 z m -45.38879,36.59757 18.16146,0 0,18.28608 -18.16146,0 z m 45.38879,0 18.16146,0 0,18.28608 -18.16146,0 z"
     id="path3-3-1"
     inkscape:connector-curvature="0"
     sodipodi:nodetypes="ccccccccccccccccccccccccccccccccccccccccccccccccccccccccccccccccccccccccccccccccccccc" />
</svg>

<svg width="580" height="580" viewBox="0 0 580 580" fill="none" xmlns="http://www.w3.org/2000/svg">
<path d="M91.9982 300.085L42.0542 336.668V519.578H141.942V336.668L91.9982 300.085ZM105.619 336.668H78.3771V328.437L91.9982 318.376L105.619 328.437V336.668V336.668ZM78.3771 382.395H60.2156V364.104H78.3771V382.395ZM78.3771 418.977H60.2156V400.686H78.3771V418.977V418.977ZM78.3771 455.559H60.2156V437.268H78.3771V455.559V455.559ZM78.3771 492.141H60.2156V473.85H78.3771V492.141V492.141ZM123.781 382.395H105.619V364.104H123.781V382.395ZM123.781 418.977H105.619V400.686H123.781V418.977ZM123.781 455.559H105.619V437.268H123.781V455.559ZM123.781 492.141H105.619V473.85H123.781V492.141Z" fill="white"/>
<path d="M174.042 224.512V519.578H273.954V224.512H174.042ZM192.224 253.846H210.381V272.132H192.224V253.846ZM237.716 253.846H255.873V272.132H237.716V253.846ZM192.224 290.418H210.381V308.704H192.224V290.418ZM237.716 290.418H255.873V308.704H237.716V290.418ZM192.224 326.99H210.381V345.276H192.224V326.99ZM237.716 326.99H255.873V345.276H237.716V326.99ZM192.224 364.121H210.381V382.407H192.224V364.121ZM237.616 364.121H255.772V382.407H237.616V364.121ZM192.224 400.693H210.381V418.979H192.224V400.693ZM237.616 400.693H255.772V418.979H237.616V400.693ZM192.224 437.265H210.381V455.551H192.224V437.265ZM237.616 437.265H255.772V455.551H237.616V437.265ZM192.224 473.863H210.381V492.149H192.224V473.863ZM237.616 473.863H255.772V492.149H237.616V473.863Z" fill="white"/>
<path d="M488.002 396.2L438.058 419.565V519.578H537.946V419.565L488.002 396.2ZM474.381 457.165H456.219V438.874H474.381V457.165ZM474.381 492.142H456.219V473.851H474.381V492.142ZM519.784 457.165H501.623V438.874H519.784V457.165ZM519.784 492.142H501.623V473.851H519.784V492.142Z" fill="white"/>
<path d="M306.054 172.422V519.578H405.957V195.254L306.054 172.422ZM324.067 215.445H342.229V233.35H324.067V215.445ZM369.902 215.445H388.063V233.35H369.902V215.445ZM324.246 253.846H342.407V272.132H324.246V253.846ZM369.724 253.846H387.885V272.132H369.724V253.846ZM324.246 290.418H342.407V308.704H324.246V290.418ZM369.724 290.418H387.885V308.704H369.724V290.418ZM324.246 326.99H342.407V345.276H324.246V326.99ZM369.724 326.99H387.885V345.276H369.724V326.99ZM324.246 364.121H342.407V382.407H324.246V364.121ZM369.634 364.121H387.796V382.407H369.634V364.121ZM324.246 400.693H342.407V418.979H324.246V400.693ZM369.634 400.693H387.796V418.979H369.634V400.693ZM324.246 437.265H342.407V455.551H324.246V437.265ZM369.634 437.265H387.796V455.551H369.634V437.265ZM324.246 473.863H342.407V492.149H324.246V473.863ZM369.634 473.863H387.796V492.149H369.634V473.863Z" fill="white"/>
</svg>
